X: 21142
T: PIBROCH OF DONALD DHU
Q: "Moderato"
%R: jig
B: "Edinburgh Repository of Music" v.1 p.114 #2 - p.115 #1
F: http://digital.nls.uk/special-collections-of-printed-music/pageturner.cfm?id=87776133
Z: 2015 John Chambers <jc:trillian.mit.edu>
M: 6/8
L: 1/8
K: G
[|\
d>cB Bdg | d>cB B2G | d>cB ABg | d<BG {B}TA2G |\
d>cB Bdg | d>cB B2G | A<AB c>de | d<BG TA2G |]
[|\
d<BB e<BB | d<BB B2G | d<BB e<BB | dBG A2G |\
dBB ecc | dBB TB2G | A<AB ~c>de | dBG TA2G |]
[|\
g<dd g<ee | g<dB B>AG | g<dd g<ee | dBG A2G |\
g<dd g<ee | g<dB | B>AG | A<AB ~c>de | dBG TA2G |]

% - - - - tune continued onto next page - - - - %

%%sep 2 1 500
%%sep 1 1 500

